assets/logo with text.svg

<svg width="500" height="126" viewBox="0 0 500 126" fill="none" xmlns="http://www.w3.org/2000/svg">
<path d="M189.08 83.28C191.107 83.6 192.947 84.4267 194.6 85.76C196.307 87.0933 197.64 88.7467 198.6 90.72C199.613 92.6933 200.12 94.8 200.12 97.04C200.12 99.8667 199.4 102.427 197.96 104.72C196.52 106.96 194.413 108.747 191.64 110.08C188.92 111.36 185.693 112 181.96 112H161.16V56.24H181.16C184.947 56.24 188.173 56.88 190.84 58.16C193.507 59.3867 195.507 61.0667 196.84 63.2C198.173 65.3333 198.84 67.7333 198.84 70.4C198.84 73.7067 197.933 76.4533 196.12 78.64C194.36 80.7733 192.013 82.32 189.08 83.28ZM168.44 80.32H180.68C184.093 80.32 186.733 79.52 188.6 77.92C190.467 76.32 191.4 74.1067 191.4 71.28C191.4 68.4533 190.467 66.24 188.6 64.64C186.733 63.04 184.04 62.24 180.52 62.24H168.44V80.32ZM181.32 106C184.947 106 187.773 105.147 189.8 103.44C191.827 101.733 192.84 99.36 192.84 96.32C192.84 93.2267 191.773 90.8 189.64 89.04C187.507 87.2267 184.653 86.32 181.08 86.32H168.44V106H181.32ZM229.343 112.72C225.236 112.72 221.503 111.787 218.143 109.92C214.836 108.053 212.223 105.413 210.303 102C208.436 98.5333 207.503 94.5333 207.503 90C207.503 85.52 208.463 81.5733 210.383 78.16C212.356 74.6933 215.023 72.0533 218.383 70.24C221.743 68.3733 225.503 67.44 229.663 67.44C233.823 67.44 237.583 68.3733 240.943 70.24C244.303 72.0533 246.943 74.6667 248.863 78.08C250.836 81.4933 251.823 85.4667 251.823 90C251.823 94.5333 250.809 98.5333 248.783 102C246.809 105.413 244.116 108.053 240.703 109.92C237.289 111.787 233.503 112.72 229.343 112.72ZM229.343 106.32C231.956 106.32 234.409 105.707 236.703 104.48C238.996 103.253 240.836 101.413 242.223 98.96C243.663 96.5067 244.383 93.52 244.383 90C244.383 86.48 243.689 83.4933 242.303 81.04C240.916 78.5867 239.103 76.7733 236.863 75.6C234.623 74.3733 232.196 73.76 229.583 73.76C226.916 73.76 224.463 74.3733 222.223 75.6C220.036 76.7733 218.276 78.5867 216.943 81.04C215.609 83.4933 214.943 86.48 214.943 90C214.943 93.5733 215.583 96.5867 216.863 99.04C218.196 101.493 219.956 103.333 222.143 104.56C224.329 105.733 226.729 106.32 229.343 106.32ZM280.514 112.72C276.408 112.72 272.674 111.787 269.314 109.92C266.008 108.053 263.394 105.413 261.474 102C259.608 98.5333 258.674 94.5333 258.674 90C258.674 85.52 259.634 81.5733 261.554 78.16C263.528 74.6933 266.194 72.0533 269.554 70.24C272.914 68.3733 276.674 67.44 280.834 67.44C284.994 67.44 288.754 68.3733 292.114 70.24C295.474 72.0533 298.114 74.6667 300.034 78.08C302.008 81.4933 302.994 85.4667 302.994 90C302.994 94.5333 301.981 98.5333 299.954 102C297.981 105.413 295.288 108.053 291.874 109.92C288.461 111.787 284.674 112.72 280.514 112.72ZM280.514 106.32C283.128 106.32 285.581 105.707 287.874 104.48C290.168 103.253 292.008 101.413 293.394 98.96C294.834 96.5067 295.554 93.52 295.554 90C295.554 86.48 294.861 83.4933 293.474 81.04C292.088 78.5867 290.274 76.7733 288.034 75.6C285.794 74.3733 283.368 73.76 280.754 73.76C278.088 73.76 275.634 74.3733 273.394 75.6C271.208 76.7733 269.448 78.5867 268.114 81.04C266.781 83.4933 266.114 86.48 266.114 90C266.114 93.5733 266.754 96.5867 268.034 99.04C269.368 101.493 271.128 103.333 273.314 104.56C275.501 105.733 277.901 106.32 280.514 106.32ZM337.046 112L319.846 92.64V112H312.566V52.8H319.846V87.6L336.726 68.16H346.886L326.246 90L346.966 112H337.046Z" fill="white"/>
<path d="M361.018 52.8V112H353.738V52.8H361.018ZM392.546 112.72C388.439 112.72 384.706 111.787 381.346 109.92C378.039 108.053 375.426 105.413 373.506 102C371.639 98.5333 370.706 94.5333 370.706 90C370.706 85.52 371.666 81.5733 373.586 78.16C375.559 74.6933 378.226 72.0533 381.586 70.24C384.946 68.3733 388.706 67.44 392.866 67.44C397.026 67.44 400.786 68.3733 404.146 70.24C407.506 72.0533 410.146 74.6667 412.066 78.08C414.039 81.4933 415.026 85.4667 415.026 90C415.026 94.5333 414.012 98.5333 411.986 102C410.012 105.413 407.319 108.053 403.906 109.92C400.492 111.787 396.706 112.72 392.546 112.72ZM392.546 106.32C395.159 106.32 397.612 105.707 399.906 104.48C402.199 103.253 404.039 101.413 405.426 98.96C406.866 96.5067 407.586 93.52 407.586 90C407.586 86.48 406.892 83.4933 405.506 81.04C404.119 78.5867 402.306 76.7733 400.066 75.6C397.826 74.3733 395.399 73.76 392.786 73.76C390.119 73.76 387.666 74.3733 385.426 75.6C383.239 76.7733 381.479 78.5867 380.146 81.04C378.812 83.4933 378.146 86.48 378.146 90C378.146 93.5733 378.786 96.5867 380.066 99.04C381.399 101.493 383.159 103.333 385.346 104.56C387.532 105.733 389.932 106.32 392.546 106.32ZM431.878 75.28C433.158 72.7733 434.971 70.8267 437.318 69.44C439.718 68.0533 442.624 67.36 446.038 67.36V74.88H444.118C435.958 74.88 431.878 79.3067 431.878 88.16V112H424.598V68.16H431.878V75.28ZM494.441 88.4C494.441 89.7867 494.361 91.2533 494.201 92.8H459.161C459.428 97.12 460.895 100.507 463.561 102.96C466.281 105.36 469.561 106.56 473.401 106.56C476.548 106.56 479.161 105.84 481.241 104.4C483.375 102.907 484.868 100.933 485.721 98.48H493.561C492.388 102.693 490.041 106.133 486.521 108.8C483.001 111.413 478.628 112.72 473.401 112.72C469.241 112.72 465.508 111.787 462.201 109.92C458.948 108.053 456.388 105.413 454.521 102C452.655 98.5333 451.721 94.5333 451.721 90C451.721 85.4667 452.628 81.4933 454.441 78.08C456.255 74.6667 458.788 72.0533 462.041 70.24C465.348 68.3733 469.135 67.44 473.401 67.44C477.561 67.44 481.241 68.3467 484.441 70.16C487.641 71.9733 490.095 74.48 491.801 77.68C493.561 80.8267 494.441 84.4 494.441 88.4ZM486.921 86.88C486.921 84.1067 486.308 81.7333 485.081 79.76C483.855 77.7333 482.175 76.2133 480.041 75.2C477.961 74.1333 475.641 73.6 473.081 73.6C469.401 73.6 466.255 74.7733 463.641 77.12C461.081 79.4667 459.615 82.72 459.241 86.88H486.921Z" fill="#818CF8"/>
<path d="M59 4.79297C71.5051 11.5557 80 24.7854 80 40C80 40.5959 79.987 41.1888 79.9609 41.7783C79.8609 44.0406 81.7355 46 84 46C106.091 46 124 63.9086 124 86C124 108.091 106.091 126 84 126H10C4.47715 126 0 121.523 0 116V39.0068L0.0126953 38.9941C0.357624 25.0252 7.86506 12.8347 19 5.95215V63.832C19 64.8345 20.0676 65.4391 20.9121 64.9902L21.0771 64.8867L38.2227 52.3428C38.6819 52.0068 39.3064 52.0068 39.7656 52.3428L56.9229 64.8945L57.0879 64.998C57.9324 65.447 59 64.8423 59 63.8398V4.79297Z" fill="#818CF8"/>
<path d="M40 0C43.8745 0 47.6199 0.552381 51.1631 1.58008V50.9697L44.3926 46.0176L44.0879 45.8037C40.9061 43.6679 36.7098 43.7393 33.5957 46.0176L26.8369 50.9619V2.21875C30.9593 0.782634 35.3881 0 40 0Z" fill="white"/>
</svg>

<?xml version="1.0" encoding="UTF-8"?>
<svg id="Layer_1" xmlns="http://www.w3.org/2000/svg" version="1.1" viewBox="0 0 500 126">
  <!-- Generator: Adobe Illustrator 29.5.0, SVG Export Plug-In . SVG Version: 2.1.0 Build 137)  -->
  <path d="M189.08,83.28c2.03.32,3.87,1.15,5.52,2.48,1.71,1.33,3.04,2.99,4,4.96,1.01,1.97,1.52,4.08,1.52,6.32,0,2.83-.72,5.39-2.16,7.68-1.44,2.24-3.55,4.03-6.32,5.36-2.72,1.28-5.95,1.92-9.68,1.92h-20.8v-55.76h20c3.79,0,7.01.64,9.68,1.92,2.67,1.23,4.67,2.91,6,5.04,1.33,2.13,2,4.53,2,7.2,0,3.31-.91,6.05-2.72,8.24-1.76,2.13-4.11,3.68-7.04,4.64ZM168.44,80.32h12.24c3.41,0,6.05-.8,7.92-2.4,1.87-1.6,2.8-3.81,2.8-6.64s-.93-5.04-2.8-6.64c-1.87-1.6-4.56-2.4-8.08-2.4h-12.08v18.08ZM181.32,106c3.63,0,6.45-.85,8.48-2.56,2.03-1.71,3.04-4.08,3.04-7.12s-1.07-5.52-3.2-7.28c-2.13-1.81-4.99-2.72-8.56-2.72h-12.64v19.68h12.88ZM229.34,112.72c-4.11,0-7.84-.93-11.2-2.8-3.31-1.87-5.92-4.51-7.84-7.92-1.87-3.47-2.8-7.47-2.8-12s.96-8.43,2.88-11.84c1.97-3.47,4.64-6.11,8-7.92,3.36-1.87,7.12-2.8,11.28-2.8s7.92.93,11.28,2.8c3.36,1.81,6,4.43,7.92,7.84,1.97,3.41,2.96,7.39,2.96,11.92s-1.01,8.53-3.04,12c-1.97,3.41-4.67,6.05-8.08,7.92-3.41,1.87-7.2,2.8-11.36,2.8ZM229.34,106.32c2.61,0,5.07-.61,7.36-1.84,2.29-1.23,4.13-3.07,5.52-5.52,1.44-2.45,2.16-5.44,2.16-8.96s-.69-6.51-2.08-8.96c-1.39-2.45-3.2-4.27-5.44-5.44-2.24-1.23-4.67-1.84-7.28-1.84s-5.12.61-7.36,1.84c-2.19,1.17-3.95,2.99-5.28,5.44-1.33,2.45-2,5.44-2,8.96s.64,6.59,1.92,9.04c1.33,2.45,3.09,4.29,5.28,5.52,2.19,1.17,4.59,1.76,7.2,1.76ZM280.51,112.72c-4.11,0-7.84-.93-11.2-2.8-3.31-1.87-5.92-4.51-7.84-7.92-1.87-3.47-2.8-7.47-2.8-12s.96-8.43,2.88-11.84c1.97-3.47,4.64-6.11,8-7.92,3.36-1.87,7.12-2.8,11.28-2.8s7.92.93,11.28,2.8c3.36,1.81,6,4.43,7.92,7.84,1.97,3.41,2.96,7.39,2.96,11.92s-1.01,8.53-3.04,12c-1.97,3.41-4.67,6.05-8.08,7.92-3.41,1.87-7.2,2.8-11.36,2.8ZM280.51,106.32c2.61,0,5.07-.61,7.36-1.84,2.29-1.23,4.13-3.07,5.52-5.52,1.44-2.45,2.16-5.44,2.16-8.96s-.69-6.51-2.08-8.96c-1.39-2.45-3.2-4.27-5.44-5.44-2.24-1.23-4.67-1.84-7.28-1.84s-5.12.61-7.36,1.84c-2.19,1.17-3.95,2.99-5.28,5.44-1.33,2.45-2,5.44-2,8.96s.64,6.59,1.92,9.04c1.33,2.45,3.09,4.29,5.28,5.52,2.19,1.17,4.59,1.76,7.2,1.76ZM337.05,112l-17.2-19.36v19.36h-7.28v-59.2h7.28v34.8l16.88-19.44h10.16l-20.64,21.84,20.72,22h-9.92Z" fill="#fff"/>
  <path d="M361.02,52.8v59.2h-7.28v-59.2h7.28ZM392.55,112.72c-4.11,0-7.84-.93-11.2-2.8-3.31-1.87-5.92-4.51-7.84-7.92-1.87-3.47-2.8-7.47-2.8-12s.96-8.43,2.88-11.84c1.97-3.47,4.64-6.11,8-7.92,3.36-1.87,7.12-2.8,11.28-2.8s7.92.93,11.28,2.8c3.36,1.81,6,4.43,7.92,7.84,1.97,3.41,2.96,7.39,2.96,11.92s-1.01,8.53-3.04,12c-1.97,3.41-4.67,6.05-8.08,7.92-3.41,1.87-7.2,2.8-11.36,2.8ZM392.55,106.32c2.61,0,5.07-.61,7.36-1.84,2.29-1.23,4.13-3.07,5.52-5.52,1.44-2.45,2.16-5.44,2.16-8.96s-.69-6.51-2.08-8.96c-1.39-2.45-3.2-4.27-5.44-5.44-2.24-1.23-4.67-1.84-7.28-1.84s-5.12.61-7.36,1.84c-2.19,1.17-3.95,2.99-5.28,5.44-1.33,2.45-2,5.44-2,8.96s.64,6.59,1.92,9.04c1.33,2.45,3.09,4.29,5.28,5.52,2.19,1.17,4.59,1.76,7.2,1.76ZM431.88,75.28c1.28-2.51,3.09-4.45,5.44-5.84,2.4-1.39,5.31-2.08,8.72-2.08v7.52h-1.92c-8.16,0-12.24,4.43-12.24,13.28v23.84h-7.28v-43.84h7.28v7.12ZM494.44,88.4c0,1.39-.08,2.85-.24,4.4h-35.04c.27,4.32,1.73,7.71,4.4,10.16,2.72,2.4,6,3.6,9.84,3.6,3.15,0,5.76-.72,7.84-2.16,2.13-1.49,3.63-3.47,4.48-5.92h7.84c-1.17,4.21-3.52,7.65-7.04,10.32-3.52,2.61-7.89,3.92-13.12,3.92-4.16,0-7.89-.93-11.2-2.8-3.25-1.87-5.81-4.51-7.68-7.92-1.87-3.47-2.8-7.47-2.8-12s.91-8.51,2.72-11.92c1.81-3.41,4.35-6.03,7.6-7.84,3.31-1.87,7.09-2.8,11.36-2.8s7.84.91,11.04,2.72c3.2,1.81,5.65,4.32,7.36,7.52,1.76,3.15,2.64,6.72,2.64,10.72ZM486.92,86.88c0-2.77-.61-5.15-1.84-7.12-1.23-2.03-2.91-3.55-5.04-4.56-2.08-1.07-4.4-1.6-6.96-1.6-3.68,0-6.83,1.17-9.44,3.52-2.56,2.35-4.03,5.6-4.4,9.76h27.68Z" fill="#818cf8"/>
  <path d="M94.31,3.17c0-1.75-1.42-3.17-3.17-3.17H19.1C8.68,0,.14,8.13.14,18.06v89.87c0,9.94,8.53,18.06,18.96,18.06h72.17c10.43,0,18.96-8.13,18.96-18.06V24.57c0-1.75-1.42-3.17-3.17-3.17h-41.41c-4.25,0-7.7,3.45-7.7,7.7v26.67c0,1.39-1.67,2.11-2.68,1.15l-10.79-10.28c-.61-.58-1.57-.58-2.19,0l-10.79,10.28c-1.01.96-2.68.25-2.68-1.15V21.4h-8.29c-5.96,0-10.83-3.39-10.83-7.53s4.87-7.53,10.83-7.53h70.6c1.75,0,3.17-1.42,3.17-3.17Z" fill="#818cf8"/>
  <path d="M52.37,16.82v28.27l-5.01-2.83-.23-.12c-2.36-1.22-5.46-1.18-7.77.12l-5.01,2.83v-28.26" fill="#fff"/>
  <rect x="16.17" y="10.13" width="74.63" height="6.69" rx="3.34" ry="3.34" fill="#fff"/>
</svg>
